X: 1
T: Rachel Rae
M: C|
L: 1/8
K: D
|: A 
|"D" D2FA "A" d2Ac | "D" d2fd "A7" e2cA | "D" d2AF "Em" BAGF | "A7" EFGA "D" FDD2
|"D" D2FA "A" d2Ac | "D" d2fd "A7" e2cA | "D" d2AF "Em" BAGF | "A7" EFGA "D" FD D:|
|: A
|"D" defg a2fd | "Em" g2bg "A" e2cA | "D" defg "A" a2fd | "A7" egfe "D" fddA
|"D" defg fafd | "Em" g2bg "A" e2cA | "D" d2AF "Em" BAGF | "A" EFGA "D" FD D :||
